X:3
T:Bezeichnung standardisiert: 3. Tanz in B - nach Drey\sser 1720;
T:3 [Dantz in B nach Johann Friedrich Drey\sser, 1720]
C:Urheber unbekannt, 1720 belegt
S:Handschrift "Dantz B\"uchlein", geschrieben von "Johann Friedrich Drey\sser" "1720", Bayerische Staatsbibliothek Mus.ms. 1578.
S:Scan online: http://daten.digitale-sammlungen.de/bsb00108196/image_16
F:http://simonwascher.info/TradArchiv/Drey\sser_1720  file-version 2017-11-25
Z:abc-Text erstellt von Simon Wascher am 28.10.2016 unter Verwendung der Umwandlung der RISM Incipits und in Kenntniss der Abschrift von Emil Karl BL\"umml im \"Osterreichischen Volksliedarchiv, E-53.
M:C|
L:1/8
K:Bb ionisch treble
b2 |\
f2g2d2e2 | fedcB2b2 |\
f2g2d2"^\202"e2 | f6 ::\
"^1)........"f2 |\
c2c2d2"^\202"e2 | "^2)"^B2A2G2g2 | d2"^\202"e2f2g2 | e2d2c2c2 | G2A2B2c2 | A2G2F2f2 | gfedc2>B2 | B6 H:|
d2 |\
A2=B2c2d2 | =B2

